X: 13298
T: Flagstone Of Memories
R: reel
M: 4/4
K: Gmajor
|:B2 BA BAGA|BD~D2 EGGA|BD~D2 EGGA|BddB A2 GA|
B2 BA BAGA|BD~D2 EGGA|Bd d2 egge|dBAB G3 B:|
|:~g2 ge ~f2 fd|e2 ed BAGA|Bdef gfgd|Bdef gdBd|
~g2 ge ~f2 fd|e2 ed BAGA|Bd d2 egge|dBAB G3z:|

